X:1
T:Title
%%score { 1 | 2 }
L:1/8
Q:1/4=100
M:3/4
K:G
V:1 treble nm="Grand Piano"
V:2 bass 
V:1
 B[B,G] [CE]2 [B,D]2 | [DG][DB] [DA]4 | [DB][B,G] [CE]2 [B,D]2 | [B,DG][CDA] [B,DG]4 | %4
w: W.~B.~Bradbury * * *||||
 [DFA][DGB] [DFA]2 [A,DF]2 | [B,DG][DB] A4 | Bc B2 G2 | [FA][GB] [FA]4 | B[B,G] [CE]2 [B,D]2 | %9
w: |||||
 [DG][DB] [DA]4 | [DB][B,G] [CE]2 [B,D]2 |[M:7/4] [B,DG][CDA] [B,DG]4 z2 z2 z4 |] %12
w: |||
V:2
 [G,D][G,,G,] [G,,G,]2 [G,,G,]2 | [B,,G,][G,,G,] [D,F,]4 | [G,,G,][G,,G,] [G,,G,]2 [G,,G,]2 | %3
 D,D, G,,4 | D,D, D,2 D,2 | G,,[G,,G,] [D,F,D]4 | [G,D][G,E] [G,D]2 [G,B,D]2 | [D,D][D,D] [D,D]4 | %8
 [G,D][G,,G,] [G,,G,]2 [G,,G,]2 | [B,,G,][G,,G,] [D,F,]4 | [G,,G,][G,,G,] [G,,G,]2 [G,,G,]2 | %11
[M:7/4] D,D, G,,4 z2 z2 z4 |] %12

